X:362
T:Dinky Dorian's
T:Dinky's
R:Reel
O:Scotland
C:Francie Dearg Byrne
S:My arrangement from various sources- I think...
Z:Transcription, arrangement, chords:Mike Long
M:C|
L:1/8
K:D
ed |\
"A"c2Bc ABcd|egfd edBd|"G"gB~B2 gBaB|gB~B2 gfed|\
"A"c2Bc ABcd|egfd edBd|
"G"gfge dfed|"E"cdBc "A"A2:|\
ef|\
"A"aA~A2 aAbA|aA~A2 agef|\
"G"gB~B2 gBaB|gB~B2 gfef|
"A"aA~A2 aAbA|aA~A2 agef|\
"G"gfge dfed|"E"cdBc "A"A2ef||\
"A"aA~A2 aAbA|aA~A2 agef|
"G"gB~B2 gBaB|gB~B2 gfef|"A"aA~A2 "G"gA~A2|\
"D"fA~A2 "A"edef|"G"gfge dfed|"E"cdBc "A"A2|]
